X: 3017
T: DAFT WILLIE DAWSON
Q:"Strathspey."
R: Strathspey.
%R:strathspey
B: James Kerr "Merry Melodies" v.3 p.5 #17
Z: 2016 John Chambers <jc:trillian.mit.edu>
M: C
L: 1/8
K: D
uD>uB, |\
vA,>uB, D<D D2 d>B | A>FE>D E2(E>F) |\
A,>B, D<D D2 d>B | A<F E>F D2 ::\
(3ABc) |\
d>ed>c B>A (B<d) | A<F E>D E2-EA |\
d>ed>c B>A (B<d) | A<F E>F D2 :|

%%sep 1 1 500
%%sep 1 1 500

